X: 525
T: Down Yonder
B: jims roots
M:2/2
L:1/8
Q: 1/2=100
K:G
V:1 
%TablEdited by Rod B.
%Q:400
xd^c=c | "G"B2 B2 AGA^A | BdBG zgf=f | "C"e2 e2 dcd^d | egec z2 cA |
"G"BGAG BGAG | BdBd z2 A^A | BGAG BGAG | BdBd z2 ed |
"A7"^c2c2 BAB=c | ^cecA z2 Bc | "D"dedc zB A2 | "D7"DEDC zB,A,2 |
"G"B2B2 AGA^A | BdBG zgf=f | "C"e2e2 dcd^d | egec zGGA |
"G"BGAG BGAG | BdBd z2^cd | "A7"efga "D7"zfed | "G"gedB G4 |
% abcbook-tune_id 6298c245415247fb558bf989


% abcbook-boost 0
% abcbook-tablature 
% abcbook-transpose 
% abcbook-lastupdated 1654178374018
% abcbook-soundfonts 
% abcbook-repeats 1


